!!!COM: Scriabin, Alexander
!!!OTL: Prelude
!!!OPR: 24 Preludes
!!!OPS: 11
!!!ONM: 22
!!!ODT: 1896
!!!AGN: Prelude
**kern	**kern
*staff2	*staff1
*clefF4	*clefG2
*k[b-e-]	*k[b-e-]
*g:	*g:
*M3/4	*M3/4
=1	=1
*	*^
2G	8ddL	2e- 2b-
.	8cc	.
.	8ee-	.
.	8b-	.
[4F#X	8dd	4e- 4a
.	8ccJ	.
=2	=2	=2
8F#L]	4d 4b-	8b-L
8GJ	.	8gJ
4.Fn	2a	4c 4g
.	.	4c 4g
8E-	.	.
=3	=3	=3
2D	8b-L	4B- 4g-X
.	8aJ	.
.	8b-L	4B- 4f
.	8fJ	.
[4D	8aL	4B- 4en
.	8gnJ	.
=4	=4	=4
4D]	2g	4B- 4e-X
4.C	.	4A 4e-
.	4f#X	4d
8BBn	.	.
=5	=5	=5
8BBnL	2.g	4d 4fn
8CJ	.	.
4.G	.	4c 4f
.	.	4c 4f
8D-X	.	.
=6	=6	=6
8D-XL	4g	4Bn 4f
8DnJ	.	.
2F	4a-X	4B 4d
.	4g	4B 4d
=7	=7	=7
*	*	*^
2.E-	4g	4c	4r
.	4dd	4Bn	2g/
.	4cc	4c	.
*	*	*v	*v
=8	=8	=8
2.D	4b-	2d 2f#X
.	4.a	.
.	.	4A 4fn
.	8a	.
=9	=9	=9
2D	8aL	2B- 2f
.	8g	.
.	8b-	.
.	8f	.
[4C#X	8a	4B- 4en
.	8gJ	.
=10	=10	=10
8C#L]	4A 4f	8fL
8DJ	.	8dJ
4.Cn	2en	4G 4d
.	.	4G 4d
8BB-	.	.
=11	=11	=11
2AA	8fL	4F 4d-X
.	8enJ	.
.	8fL	4F 4c
.	8cJ	.
[4AA	8eL	4F 4Bn
.	8dnJ	.
=12	=12	=12
4AA]	2d	4F 4B-X
4.GG	.	4En 4B-
.	4c#X	4A
8FF#X	.	.
=13	=13	=13
8FF#XL	[2.d	4A 4cn
[8GGJ	.	.
4.GG] 4.D	.	4G 4c
.	.	4A 4c
8AA-X	.	.
=14	=14	=14
8AA-XL	4d]	4F#X 4c
[8AAnJ	.	.
4.AA] 4.F#X	4e-	4F# 4c
.	4d	4F# 4c
8AA	.	.
=15	=15	=15
8AAL	4raa	4rc
[8BB-J	.	.
4.BB-] 4.F	[2G [2g	4d
.	.	4d-X
8BBn	.	.
=16	=16	=16
8CL	4G] 4g]	8cL
[8D-XJ	.	8BnJ
4.D-] 4.Bn	4A-X 4a-X	2f
.	4G 4g	.
8Dn	.	.
=17	=17	=17
8DL	4raa	4rc
[8E-J	.	.
4.E-] 4.c	4G 4g	2e-
.	4A-X 4a-X	.
8D	.	.
=18	=18	=18
8DL	4raa	4rc
[8E-J	.	.
4.E-] 4.c	4An 4an	2g
.	4B- 4b-	.
8D	.	.
=19	=19	=19
8DL	4raa	4rc
[8E-J	.	.
4.E-] 4.c#X	4B- 4b-	4.g
.	8A 8a	.
8e-	8a 8cc#X	8g
*	*v	*v
=20	=20
2.e-	2.g 2.a 2.cc#X
=21	=21
*	*^
8dL	8ddL	2g 2b-
8e-J	8cc	.
4c	8ee-	.
.	8b-	.
8GL	8dd	4e- 4g
8AJ	8ccJ	.
=22	=22	=22
8B-L	8b-L	2e- 2g
8cJ	8a	.
4A	8cc	.
.	8g	.
[4E-	8b-	[4c 4g
.	8aJ	.
=23	=23	=23
4E-]	4g	4c]
4r	4raa	4rc
4r	4raa	4rc
*	*v	*v
=24	=24
4D	4A 4d 4f#X
4r	4r
4r	4r
=25	=25
2GGG 2GG 2D	2B- 2d 2g
4r	4r
==	==
*-	*-
!!!system-decoration: {(*)}
!!!ENC: Bryan Jacob Bell
!!!END: November 2021 to April 2022
!!!PED: Günter Philipp
!!!PTL: Ausgewählte Klavierwerke (Edition Peters)
